src/images/mediaLogos/lightTheme/Archello.svg

<svg width="103" height="20" viewBox="0 0 103 20" fill="none" xmlns="http://www.w3.org/2000/svg">
<path d="M9.5269 18.8898V17.3608C8.71141 18.4821 7.2843 19.0937 5.44944 19.0937C2.59522 19.0937 0.862305 17.3608 0.862305 15.0162C0.862305 12.5697 2.69716 11.0407 5.95913 11.0407H9.62884V10.7349C9.62884 9.30778 8.71141 8.49229 6.87655 8.49229C5.65332 8.49229 4.32814 8.90003 2.90103 9.61359L1.6778 7.16711C3.61459 6.14775 5.34751 5.63807 7.69204 5.63807C11.2598 5.63807 13.2985 7.37098 13.2985 10.3271V18.8898H9.5269V18.8898ZM6.46881 16.3414C8.09979 16.3414 9.32303 15.5259 9.5269 14.4046V13.2833H6.57074C5.14363 13.2833 4.43008 13.691 4.43008 14.8123C4.43008 15.7298 5.14363 16.3414 6.46881 16.3414ZM20.3322 5.74H16.5605V18.8898H20.3322V12.5697C20.3322 10.3271 21.9631 8.90003 24.7154 9.1039V5.63807C22.7786 5.63807 21.2496 6.55549 20.3322 8.18648V5.74ZM32.4626 5.63807C28.3851 5.63807 25.6329 8.39035 25.6329 12.3659C25.6329 16.3414 28.3851 18.9917 32.3607 18.9917C35.1129 18.9917 37.1517 17.8704 38.273 16.1375L35.6226 14.4046C34.9091 15.424 33.8897 15.9336 32.5645 15.9336C30.7297 15.9336 29.4045 14.5065 29.4045 12.3659C29.4045 10.2252 30.7297 8.90003 32.5645 8.90003C33.8897 8.90003 34.9091 9.40971 35.6226 10.3271L38.171 8.49229C37.0497 6.65743 35.011 5.63807 32.4626 5.63807ZM49.1802 5.63807C47.1414 5.63807 45.5105 6.45356 44.593 8.08454V0.745117H40.8214V18.8898H44.593V12.4678C44.593 10.531 45.7143 9.1039 47.6511 9.1039C49.2821 9.1039 50.3015 10.1233 50.3015 11.7543V18.8898H54.0731V10.633C54.0731 7.57486 52.1363 5.63807 49.1802 5.63807Z" fill="#3A3A3A"/>
<path d="M51.1186 5.63806C49.0798 5.63806 47.4488 6.45356 46.5314 8.08454V0.745117H42.7598V18.8898H46.5314V12.4678C46.5314 10.531 47.6527 9.1039 49.5895 9.1039C51.2205 9.1039 52.2399 10.1233 52.2399 11.7542V18.8898H56.0115V10.6329C56.0115 7.57486 54.0747 5.63806 51.1186 5.63806Z" fill="#737373"/>
<path opacity="0.2958" d="M49.1801 5.63806C47.1413 5.63806 45.5104 6.45356 44.5929 8.08454V0.745117H40.8213V18.8898H44.5929V12.4678C44.5929 10.531 45.7142 9.1039 47.651 9.1039C49.282 9.1039 50.3014 10.1233 50.3014 11.7542V18.8898H54.073V10.6329C54.073 7.57486 52.1362 5.63806 49.1801 5.63806Z" fill="#3A3A3A"/>
<path d="M64.9796 5.63807C69.6686 5.63807 71.8093 8.69616 71.5035 13.4872H62.0234C62.4312 15.1182 63.7563 16.1375 65.4892 16.1375C66.7125 16.1375 67.9357 15.6278 68.8531 14.7104L70.8919 16.7491C69.5667 18.1762 67.6299 19.0937 65.1834 19.0937C60.9021 19.0937 58.2518 16.4433 58.2518 12.4678C58.1498 8.28841 60.9021 5.63807 64.9796 5.63807ZM61.9215 11.2446H67.9357C67.9357 9.51165 66.7125 8.39035 64.9796 8.39035C63.3486 8.39035 62.1253 9.51165 61.9215 11.2446ZM77.9255 18.8898V0.745117H74.0519V18.8898H77.9255ZM85.5707 18.8898V0.745117H81.7991V18.8898H85.5707ZM95.3566 5.63807C99.6379 5.63807 102.492 8.28841 102.492 12.3659C102.492 16.3414 99.6379 19.0937 95.3566 19.0937C91.0753 19.0937 88.2211 16.3414 88.2211 12.3659C88.2211 8.28841 91.0753 5.63807 95.3566 5.63807ZM95.3566 8.79809C93.4198 8.79809 92.0946 10.2252 92.0946 12.3659C92.0946 14.5065 93.4198 16.0356 95.3566 16.0356C97.2934 16.0356 98.6186 14.6085 98.6186 12.4678C98.6186 10.3271 97.2934 8.79809 95.3566 8.79809Z" fill="#737373"/>
</svg>

<svg width="103" height="20" fill="none" xmlns="http://www.w3.org/2000/svg"><path d="M9.527 18.89v-1.53c-.816 1.122-2.243 1.734-4.078 1.734-2.854 0-4.587-1.733-4.587-4.078 0-2.446 1.835-3.975 5.097-3.975h3.67v-.306c0-1.427-.918-2.243-2.752-2.243-1.224 0-2.549.408-3.976 1.122L1.678 7.167c1.937-1.02 3.67-1.529 6.014-1.529 3.568 0 5.607 1.733 5.607 4.69v8.562H9.527zM6.469 16.34c1.63 0 2.854-.815 3.058-1.936v-1.122H6.57c-1.427 0-2.14.408-2.14 1.53 0 .917.713 1.528 2.038 1.528zM20.332 5.74h-3.771v13.15h3.771v-6.32c0-2.243 1.631-3.67 4.383-3.466V5.638c-1.936 0-3.465.917-4.383 2.548V5.74zm12.13-.102c-4.077 0-6.83 2.752-6.83 6.728 0 3.975 2.753 6.626 6.729 6.626 2.752 0 4.79-1.122 5.912-2.855l-2.65-1.732c-.714 1.019-1.733 1.529-3.058 1.529-1.835 0-3.16-1.427-3.16-3.568 0-2.14 1.325-3.466 3.16-3.466 1.325 0 2.344.51 3.058 1.427l2.548-1.835c-1.121-1.835-3.16-2.854-5.708-2.854zm16.718 0c-2.039 0-3.67.816-4.587 2.447V.745h-3.772V18.89h3.772v-6.422c0-1.937 1.121-3.364 3.058-3.364 1.631 0 2.65 1.02 2.65 2.65v7.136h3.772v-8.257c0-3.058-1.937-4.995-4.893-4.995z" fill="#3A3A3A"/><path d="M51.119 5.638c-2.04 0-3.67.816-4.588 2.447V.745H42.76V18.89h3.771v-6.422c0-1.937 1.122-3.364 3.059-3.364 1.63 0 2.65 1.02 2.65 2.65v7.136h3.771v-8.257c0-3.058-1.936-4.995-4.892-4.995z" fill="#737373"/><path opacity=".296" d="M49.18 5.638c-2.039 0-3.67.816-4.587 2.447V.745H40.82V18.89h3.772v-6.422c0-1.937 1.121-3.364 3.058-3.364 1.631 0 2.65 1.02 2.65 2.65v7.136h3.772v-8.257c0-3.058-1.937-4.995-4.893-4.995z" fill="#3A3A3A"/><path d="M64.98 5.638c4.689 0 6.83 3.058 6.523 7.85h-9.48c.408 1.63 1.733 2.65 3.466 2.65 1.224 0 2.447-.51 3.364-1.428l2.039 2.04c-1.325 1.426-3.262 2.344-5.709 2.344-4.28 0-6.931-2.65-6.931-6.626-.102-4.18 2.65-6.83 6.728-6.83zm-3.059 5.607h6.015c0-1.733-1.224-2.855-2.956-2.855-1.631 0-2.855 1.122-3.059 2.855zm16.005 7.645V.745h-3.874V18.89h3.873zm7.645 0V.745h-3.772V18.89h3.772zm9.786-13.252c4.28 0 7.135 2.65 7.135 6.728 0 3.975-2.854 6.728-7.135 6.728-4.282 0-7.136-2.753-7.136-6.728 0-4.078 2.854-6.728 7.136-6.728zm0 3.16c-1.937 0-3.262 1.427-3.262 3.568 0 2.14 1.325 3.67 3.262 3.67 1.936 0 3.262-1.428 3.262-3.568s-1.326-3.67-3.262-3.67z" fill="#737373"/></svg>
